usr/share/icons/biglinux-icons-material/22/actions/view-financial-account-asset-closed.svg

<svg version="1.1" viewBox="0 0 22 22" xmlns="http://www.w3.org/2000/svg">
    <style id="current-color-scheme" type="text/css">.ColorScheme-NegativeText { color: #da4453; }.ColorScheme-Text { color: #363636; }</style>
    <path class="ColorScheme-Text" d="m6.1210938 4 1 1h2.3125l2.2910152 0.0039062 4.558594 0.0078126 1.65625 4.9707031c-0.001369 0.0139961-0.925922 0.0112134-1.228515 0.0175781h-4.589844l1 1h4.878906v4.878906l1 1v-6.878906l-2-6h-10.878906zm-1.9023438 2.3398438-1.21875 3.6601562v7h1v2h2v-2h8.878906l-1-1h-9.878906v-5h4.8789062l-1-1h-3.0078124c-0.2013774-0.0063376-0.8091391-0.0038274-0.8105469-0.0175781l0.9492187-2.8515625-0.7910156-0.7910156zm2.28125 5.6601562a1.5 1 0 0 0-1.5 1 1.5 1 0 0 0 1.5 1 1.5 1 0 0 0 1.5-1 1.5 1 0 0 0-1.5-1zm9 0a1.5 1 0 0 0-1.076172 0.302734l1.626953 1.626954a1.5 1 0 0 0 0.949219-0.929688 1.5 1 0 0 0-1.5-1zm0.5 6.121094v0.878906h0.878906l-0.878906-0.878906z" fill="currentColor"/>
    <path class="ColorScheme-NegativeText" d="M 3.7070312,3 3,3.7070312 18.292969,19 19,18.292969 Z" fill="currentColor"/>
</svg>

<svg xmlns="http://www.w3.org/2000/svg" viewBox="0 0 22 22"><path fill="currentColor" d="m6.121 4 1 1h2.313l2.29.004 4.56.008 1.655 4.97c0 .014-.925.012-1.228.018h-4.59l1 1H18v4.879l1 1V10l-2-6H6.121zM4.22 6.34 3 10v7h1v2h2v-2h8.879l-1-1H4v-5h4.879l-1-1H4.87c-.201-.006-.809-.004-.81-.018l.949-2.851-.791-.791zM6.5 12A1.5 1 0 0 0 5 13a1.5 1 0 0 0 1.5 1A1.5 1 0 0 0 8 13a1.5 1 0 0 0-1.5-1zm9 0a1.5 1 0 0 0-1.076.303l1.627 1.627A1.5 1 0 0 0 17 13a1.5 1 0 0 0-1.5-1zm.5 6.121V19h.879L16 18.121z" style="color:#dedede"/><path fill="currentColor" d="M3.707 3 3 3.707 18.293 19l.707-.707Z" style="color:#da4453"/></svg>
